public/media/icons-technologies/STRAPI.svg

<svg width="140" height="140" viewBox="0 0 140 140" fill="none" xmlns="http://www.w3.org/2000/svg">
<g clip-path="url(#clip0_205_1397)">
<path fill-rule="evenodd" clip-rule="evenodd" d="M89.7006 91.5668V52.7805C89.7005 52.1172 89.4369 51.4812 88.9679 51.0122C88.4988 50.5433 87.8627 50.2798 87.1994 50.2798H48.4584V10.2437H127.191C127.52 10.2436 127.845 10.3082 128.149 10.4339C128.452 10.5596 128.728 10.7438 128.96 10.9761C129.193 11.2083 129.377 11.4841 129.503 11.7876C129.628 12.091 129.693 12.4163 129.693 12.7448V91.5668H89.7006Z" fill="#8E75FF"/>
<path opacity="0.405" fill-rule="evenodd" clip-rule="evenodd" d="M48.4584 10.2437V50.2798H11.4831C11.2358 50.2798 10.9941 50.2064 10.7885 50.069C10.5829 49.9316 10.4226 49.7364 10.3279 49.5079C10.2332 49.2795 10.2084 49.0281 10.2565 48.7856C10.3046 48.543 10.4236 48.3202 10.5983 48.1452L48.4584 10.2437ZM89.7006 128.581V91.5668H129.693L91.8358 129.465C91.6609 129.64 91.4381 129.759 91.1955 129.807C90.953 129.855 90.7016 129.831 90.4731 129.736C90.2446 129.641 90.0492 129.481 89.9117 129.276C89.7743 129.07 89.7008 128.828 89.7006 128.581ZM48.4584 50.2798H88.4498C88.7814 50.2798 89.0995 50.4115 89.3341 50.646C89.5686 50.8805 89.7005 51.1985 89.7006 51.5302V91.5668H50.9596C50.6312 91.5668 50.3059 91.5021 50.0025 91.3764C49.699 91.2507 49.4233 91.0665 49.191 90.8343C48.9588 90.602 48.7745 90.3263 48.6488 90.0228C48.5231 89.7194 48.4584 89.3941 48.4584 89.0656V50.2798Z" fill="#8E75FF"/>
</g>
<defs>
<clipPath id="clip0_205_1397">
<rect width="120" height="120" fill="white" transform="translate(10 10)"/>
</clipPath>
</defs>
</svg>

<svg xmlns="http://www.w3.org/2000/svg" fill="none" viewBox="0 0 140 140">
  <g fill="#8E75FF" fill-rule="evenodd" clip-path="url(#a)" clip-rule="evenodd">
    <path d="M89.7 91.57V52.78a2.5 2.5 0 0 0-2.5-2.5H48.46V10.24h78.73a2.5 2.5 0 0 1 2.5 2.5v78.83H89.7Z"/>
    <path d="M48.46 10.24v40.04H11.48a1.25 1.25 0 0 1-.88-2.13l37.86-37.9ZM89.7 128.58V91.57h40l-37.86 37.9a1.25 1.25 0 0 1-2.14-.89Zm-41.24-78.3h39.99a1.25 1.25 0 0 1 1.25 1.25v40.04H50.96a2.5 2.5 0 0 1-2.5-2.5V50.28Z" opacity=".41"/>
  </g>
  <defs>
    <clipPath id="a">
      <path fill="#fff" d="M0 0h120v120H0z" transform="translate(10 10)"/>
    </clipPath>
  </defs>
</svg>
